svg/fluentui-system-icons/ic_fluent_call_32_regular.svg

<svg width="32" height="32" viewBox="0 0 32 32" fill="none" xmlns="http://www.w3.org/2000/svg">
<path d="M7.42717 10.5155C7.04603 8.00287 8.81925 5.74056 11.5302 4.91145C12.5286 4.60612 13.5923 5.13015 13.9585 6.10783L14.8277 8.42778C15.1137 9.19135 14.9076 10.0521 14.3067 10.6033L11.7217 12.9744C11.4628 13.2119 11.3479 13.5694 11.4183 13.9135L11.4413 14.018C11.4556 14.0804 11.4766 14.1687 11.5049 14.279C11.5616 14.4996 11.6479 14.8097 11.7686 15.179C12.0089 15.9136 12.392 16.9016 12.962 17.8888C13.532 18.8761 14.1961 19.7019 14.7121 20.2772C14.9715 20.5664 15.197 20.7962 15.3596 20.9556C15.441 21.0353 15.507 21.0977 15.5539 21.1412L15.6341 21.2145C15.8969 21.4475 16.2628 21.5256 16.5978 21.4202L19.9438 20.367C20.7216 20.1222 21.5701 20.3741 22.0883 21.0036L23.6713 22.9264C24.3301 23.7268 24.2527 24.9016 23.4945 25.6085C21.4202 27.5424 18.5683 27.9385 16.5831 26.3434C14.6693 24.8056 12.417 22.5204 10.5355 19.286C8.64962 16.044 7.79578 12.9455 7.42717 10.5155ZM13.5133 14.045L15.6586 12.0772C16.8604 10.9748 17.2727 9.25327 16.7006 7.72614L15.8314 5.40618C15.0944 3.43895 12.9542 2.38451 10.9453 2.9989C7.58006 4.0281 4.87798 7.04579 5.44979 10.8154C5.84912 13.448 6.77275 16.7951 8.80675 20.2916C10.8325 23.774 13.2605 26.2393 15.3304 27.9024C18.3053 30.2928 22.2786 29.4765 24.8583 27.0713C26.3894 25.6438 26.5458 23.2715 25.2154 21.6553L23.6324 19.7325C22.5959 18.4734 20.8989 17.9697 19.3433 18.4593L16.5664 19.3333C16.4596 19.2236 16.3359 19.0923 16.201 18.9419C15.7447 18.4331 15.174 17.7202 14.694 16.8888C14.2141 16.0575 13.882 15.2067 13.6695 14.5572C13.6067 14.3652 13.5549 14.1924 13.5133 14.045Z" fill="#212121"/>
</svg>

<svg xmlns="http://www.w3.org/2000/svg" width="32" height="32"><path d="M7.427 10.515C7.046 8.003 8.82 5.741 11.53 4.911a1.976 1.976 0 0 1 2.429 1.197l.869 2.32a2 2 0 0 1-.521 2.175l-2.585 2.371a1.003 1.003 0 0 0-.304.94l.023.104.064.261c.057.22.143.53.264.9.24.735.623 1.723 1.193 2.71.57.987 1.234 1.813 1.75 2.388a14.718 14.718 0 0 0 .842.864l.08.074a1 1 0 0 0 .964.205l3.346-1.053a2 2 0 0 1 2.144.637l1.583 1.922c.66.8.582 1.976-.177 2.683-2.074 1.933-4.926 2.33-6.91.734a25.464 25.464 0 0 1-6.048-7.057 24.865 24.865 0 0 1-3.109-8.77Zm6.086 3.53 2.146-1.968a4 4 0 0 0 1.042-4.35l-.87-2.32a3.976 3.976 0 0 0-4.886-2.408C7.58 4.029 4.878 7.046 5.45 10.815a26.88 26.88 0 0 0 3.357 9.477 27.461 27.461 0 0 0 6.523 7.61c2.975 2.39 6.949 1.575 9.528-.83a3.962 3.962 0 0 0 .357-5.417l-1.583-1.922a4 4 0 0 0-4.289-1.274l-2.777.874a13.15 13.15 0 0 1-.365-.391 12.537 12.537 0 0 1-1.507-2.053 12.544 12.544 0 0 1-1.025-2.332 13.09 13.09 0 0 1-.156-.512Z"/></svg>
